X:1
T:Kandy, 87.87 D
T:Kandy, 87.87 D
T:Thomas Hastings, 1867
T:Public Domain Courtesy of the Cyber Hymnal™
C:Thomas Hastings, 1867
Z:Public Domain
Z:Courtesy of the Cyber Hymnal™
%%score ( 1 2 ) ( 3 4 )
L:1/8
Q:1/4=130
M:3/2
K:C
V:1 treble 
V:2 treble 
V:3 bass 
V:4 bass 
V:1
 [CE]3 [DF] | [EG]6 [Ec]2 [FA]2 [Fc]2 | [EG]2 [CE]6 [CE]2 [DF]2 | [EG]6 [Gc]2 [FB]2 [Ec]2 | %4
 [Gd]8 [CE]3 [DF] | [EG]6 [Ec]2 [FA]2 [Fc]2 | [EG]2 [CE]6 [Ec]3 [GB] | [FA]6 [Fd]2 [Ec]2 [DB]2 | %8
 [Ec]8 [DB]2 [Ec]2 | [Fd]6 [Fd]2 [Ec]2 [Fd]2 | ([Ge]3 [Fd]) [Ec]4 [DB]2 [Ec]2 | %11
 [Dd]6 [Dd]2 [Ec]2 [^FA]2 | G8 [CE]3 [DF] | [EG]6 [Ec]2 [FA]2 [Fc]2 | [EG]2 [CE]6 [Ec]2 [GB]2 | %15
 [FA]6 [Fd]2 [Ec]2 [DB]2 | [Ec]8 |] %17
V:2
 x4 | x12 | x12 | x12 | x12 | x12 | x12 | x12 | x12 | x12 | x12 | x12 | G8 x4 | x12 | x12 | x12 | %16
 x8 |] %17
V:3
 [C,G,]3 [C,G,] | [C,C]6 [C,G,]2 [C,C]2 [C,G,]2 | [C,C]2 [C,G,]6 [C,G,]2 [C,G,]2 | %3
 [C,G,]6 [E,G,]2 [D,G,]2 [C,G,]2 | [G,B,]8 [C,G,]3 [C,G,] | [C,C]6 [C,G,]2 [C,C]2 [C,A,]2 | %6
 [C,C]2 [C,G,]6 [C,G,]3 [E,C] | [F,C]6 [F,A,]2 G,2 G,2 | [C,G,]8 G,2 G,2 | %9
 [G,B,]6 [G,B,]2 [G,C]2 [G,B,]2 | [C,C]4 [C,G,]4 [D,G,]2 [C,G,]2 | [G,B,]6 [G,B,]2 [C,C]2 [D,C]2 | %12
 [G,,B,]8 [C,G,]3 [C,G,] | [C,C]6 [C,C]2 [C,C]2 [C,A,]2 | [C,C]2 [C,G,]6 [C,G,]2 [E,C]2 | %15
 [F,C]6 [F,A,]2 G,2 G,2 | [C,G,]8 |] %17
V:4
 x4 | x12 | x12 | x12 | x12 | x12 | x12 | x8 G,2 G,2 | x8 G,2 G,2 | x12 | x12 | x12 | x12 | x12 | %14
 x12 | x8 G,2 G,2 | x8 |] %17

